YHN.DEV/Client/yohanapp/src/Images/icons/github.svg

<?xml version="1.0" encoding="UTF-8"?>
<svg xmlns="http://www.w3.org/2000/svg" xmlns:xlink="http://www.w3.org/1999/xlink" width="25pt" height="25pt" viewBox="0 0 25 25" version="1.1">
<g id="surface1">
<path style=" stroke:none;fill-rule:evenodd;fill:rgb(0%,0%,0%);fill-opacity:1;" d="M 12.601562 0.316406 C 5.644531 0.316406 0 5.953125 0 12.914062 C 0 18.484375 3.609375 23.207031 8.617188 24.871094 C 9.246094 24.988281 9.476562 24.59375 9.476562 24.265625 C 9.476562 23.960938 9.464844 22.96875 9.460938 21.917969 C 5.953125 22.679688 5.21875 20.433594 5.21875 20.433594 C 4.644531 18.976562 3.816406 18.585938 3.816406 18.585938 C 2.671875 17.800781 3.902344 17.824219 3.902344 17.824219 C 5.171875 17.910156 5.835938 19.117188 5.835938 19.117188 C 6.957031 21.046875 8.785156 20.488281 9.5 20.164062 C 9.617188 19.351562 9.941406 18.792969 10.300781 18.480469 C 7.5 18.164062 4.558594 17.082031 4.558594 12.253906 C 4.558594 10.878906 5.054688 9.753906 5.859375 8.871094 C 5.730469 8.554688 5.296875 7.273438 5.980469 5.535156 C 5.980469 5.535156 7.039062 5.199219 9.445312 6.828125 C 10.449219 6.550781 11.53125 6.410156 12.601562 6.40625 C 13.671875 6.410156 14.75 6.546875 15.753906 6.828125 C 18.160156 5.199219 19.214844 5.535156 19.214844 5.535156 C 19.902344 7.273438 19.472656 8.558594 19.34375 8.871094 C 20.148438 9.753906 20.636719 10.878906 20.636719 12.253906 C 20.636719 17.09375 17.6875 18.15625 14.882812 18.46875 C 15.335938 18.863281 15.738281 19.625 15.738281 20.804688 C 15.738281 22.488281 15.726562 23.847656 15.726562 24.261719 C 15.726562 24.59375 15.953125 24.988281 16.59375 24.863281 C 21.597656 23.199219 25.203125 18.476562 25.203125 12.910156 C 25.203125 5.953125 19.558594 0.3125 12.601562 0.3125 Z M 12.601562 0.316406 "/>
</g>
</svg>

<svg width="25" height="25" xmlns="http://www.w3.org/2000/svg">
 <g>
  <title>background</title>
  <rect x="-1" y="-1" width="27" height="27" id="canvas_background" fill="none"/>
 </g>

 <g>
  <title>Layer 1</title>
  <g id="surface1">
   <path d="m12.60156,0.31641c-6.95703,0 -12.60156,5.63672 -12.60156,12.59765c0,5.57032 3.60938,10.29297 8.61719,11.95703c0.6289,0.11719 0.85937,-0.27734 0.85937,-0.60546c0,-0.30469 -0.01172,-1.29688 -0.01562,-2.34766c-3.50781,0.76172 -4.24219,-1.48438 -4.24219,-1.48438c-0.57422,-1.45703 -1.40234,-1.84765 -1.40234,-1.84765c-1.14453,-0.78516 0.08593,-0.76172 0.08593,-0.76172c1.26954,0.08594 1.9336,1.29297 1.9336,1.29297c1.12109,1.92969 2.94922,1.37109 3.66406,1.04687c0.11719,-0.8125 0.44141,-1.37109 0.80078,-1.68359c-2.80078,-0.31641 -5.74219,-1.39844 -5.74219,-6.22656c0,-1.375 0.4961,-2.5 1.30079,-3.38282c-0.12891,-0.3164 -0.5625,-1.59765 0.12109,-3.33593c0,0 1.05859,-0.33594 3.46484,1.29297c1.00391,-0.27735 2.08594,-0.41797 3.15625,-0.42188c1.07032,0.00391 2.14844,0.14063 3.15235,0.42188c2.40625,-1.62891 3.46093,-1.29297 3.46093,-1.29297c0.6875,1.73828 0.25782,3.02343 0.12891,3.33593c0.80469,0.88282 1.29297,2.00782 1.29297,3.38282c0,4.83984 -2.94922,5.90234 -5.75391,6.21484c0.45313,0.39453 0.85547,1.15625 0.85547,2.33594c0,1.68359 -0.01172,3.04297 -0.01172,3.45703c0,0.33203 0.22657,0.72656 0.86719,0.60156c5.00391,-1.66406 8.60938,-6.38672 8.60938,-11.95312c0,-6.95703 -5.64454,-12.59766 -12.60157,-12.59766l0,0.00391zm0,0" fill="#4682b4" fill-rule="evenodd" id="svg_1"/>
  </g>
 </g>
</svg>
